imgs/padlock2.svg

<svg width="69" height="61" viewBox="0 0 69 61" fill="none" xmlns="http://www.w3.org/2000/svg">
<path d="M61 0C61 8.01064 59.4222 15.9428 56.3567 23.3437C53.2911 30.7446 48.7979 37.4691 43.1335 43.1335C37.4692 48.7979 30.7446 53.2911 23.3437 56.3567C15.9428 59.4222 8.01064 61 0 61L1.14441e-05 0H61Z" fill="#DFF7F0"/>
<path d="M59 52C53.617 52 48.631 48.21 45 44.789C41.369 48.21 36.383 52 31 52C25.486 52 21 47.514 21 42C21 36.486 25.486 32 31 32C36.383 32 41.369 35.79 45 39.211C48.631 35.79 53.617 32 59 32C64.514 32 69 36.486 69 42C69 47.514 64.514 52 59 52ZM47.879 42C52.217 46.034 55.866 48 59 48C62.309 48 65 45.309 65 42C65 38.691 62.309 36 59 36C55.866 36 52.217 37.966 47.879 42ZM31 36C27.691 36 25 38.691 25 42C25 45.309 27.691 48 31 48C34.134 48 37.783 46.034 42.121 42C37.783 37.966 34.134 36 31 36Z" fill="#62D5B4"/>
<line x1="44.5" y1="25" x2="44.5" y2="13" stroke="#93E7CF" stroke-width="3"/>
<line x1="53.0358" y1="24.5644" x2="62.2284" y2="16.851" stroke="#93E7CF" stroke-width="3"/>
<line y1="-1.5" x2="12" y2="-1.5" transform="matrix(-0.766044 -0.642788 -0.642788 0.766044 35.1924 25.7134)" stroke="#93E7CF" stroke-width="3"/>
</svg>

<svg width="69" height="61" fill="none" xmlns="http://www.w3.org/2000/svg"><path d="M61 0A61 61 0 010 61V0h61z" fill="#DFF7F0"/><path d="M59 52c-5.383 0-10.369-3.79-14-7.211C41.369 48.21 36.383 52 31 52c-5.514 0-10-4.486-10-10s4.486-10 10-10c5.383 0 10.369 3.79 14 7.211C48.631 35.79 53.617 32 59 32c5.514 0 10 4.486 10 10s-4.486 10-10 10zM47.879 42c4.338 4.034 7.987 6 11.121 6 3.309 0 6-2.691 6-6s-2.691-6-6-6c-3.134 0-6.783 1.966-11.121 6zM31 36c-3.309 0-6 2.691-6 6s2.691 6 6 6c3.134 0 6.783-1.966 11.121-6-4.338-4.034-7.987-6-11.121-6z" fill="#62D5B4"/><path stroke="#93E7CF" stroke-width="3" d="M44.5 25V13m8.536 11.564l9.192-7.713m-26.071 7.713l-9.193-7.713"/></svg>
